X: 1
T: When Charlie Comes    [A,Bm]
C:
R: reel
B: Logan's Collection of Highland Bagpipe Music v.3 p.21 #29
F: http://www.ceolsean.net/content/Logan/Book03/Book03%2021.pdf
Z: 2015 John Chambers <jc:trillian.mit.edu>
N: Chords added by John Chambers.
N: The first two strains are also played in a different setting, in A minor.
M: C|
L: 1/8
K: Amix
a |\
"A"A>AAB e>AAa | A>AAB "G"dBGB |\
"A"A>AAB ABcd | "G"egdg BGG :|
B |\
"A"Aaag aAAB | Aaaf "G"gGGB |\
"A"Aaag adaf | "G"gadg BGGB |
"A"Aaea cAAc | Aaef "G"gGdB |\
"A"Aaea faeg | faef "G"gGdc ||
"Bm"B>BBc fBBc | B>BBc "A"ecAc |\
"Bm"B>BBc Bcde | "A"faea cAAc |
"Bm"B>BBc fBBa | B>BBc "A"eAec |\
"Bm"B>BBc d2df | f2ed "A"cAAc ||
"Bm"BBfe fBBc | BBaf "A"ecAc |\
"Bm"BBfe fBfg | "A"a2ed cAAc |
"Bm"BBfe fBBc | BBaf "A"eAec |\
"Bm"B>BBc d2de | f2ed "A"cAA |]
